X:1
T:Under the Greenwood Tree
T:Under the Greenwood Tree
T:Copyright © CPDL
T:Copyright © CPDL
T:Copyright © CPDL
T:Copyright © CPDL
T:Copyright © CPDL
Z:Copyright © CPDL
%%score 1 { ( 2 3 ) 4 }
L:1/8
Q:1/4=140
M:4/4
K:G
V:1 treble nm="P1"
V:2 treble nm="P2"
V:3 treble 
V:4 bass nm="P3"
V:1
"^Editor: John Henry Fowler""^(  Revision:   5 - 6 - 2008  )""^Vivace.""^Lyrics from William Shakespeare  - ( 1564-1616 )""^From \"English Lyrics\" -  Set 6 -  Number 6" z8 | %1
w: |
 z8 |"^Charles Hubert Hastings Parry" z8 |"^( 1848 - 1918 )" z8 |!f! B2 AG (d4- | dc) (BA) G2 B2 | %6
w: |||Un- der the green-|* * wood _ tree Who|
 E3 F G2 B2 | D4 z2 A2 | c2 A2 (cB) (AG) | A6 d2- | d2 cB c2 d2 | B6 G2 | (!>!cB) c4 G2 | %13
w: loves to lie with|me, And|tune his mer- * ry _|note Un-|\- to the sweet bird's|throat Come|hi- * ther, come|
 (!>!cB) c4 A2 | (cd e2- edcB | c2) C2!mf! z4 | E2 E=F G4- | G2 G2 AG A2 | z2 E2 B2 E2 | %19
w: hi- * ther, come|hi- * * * * * *|* ther~!|Here we shall see|_ No en- e- my|But win- ter,|
 z2 B2 !>!d2"^rit."[Q:1/4=130] E2 | z2 e2[Q:1/4=120] c4 | B E3 z4 |"^a tempo" B2 Bc d2 B2 | %23
w: but win- ter|and rough|wea- ther,|Here shall he see no|
 GF G2 z2 G2 | !>!e2 d2 c2 A2 | B G3 z4 | z8 | z8 | z8 | z8 |!mf! !>!B4 F2 B2 | G2 E2 B4- | %32
w: en- e- my, But|win- ter and rough|wea- ther|||||Who doth am-|bi- tion shun|
 B2 B2 F2 B2 | G2 FE B4 |"^cresc."!<(! d4 A3!<)! d | B2 G2 d4- | d2 A2 A2 d2 | B2 G2 d4- | %38
w: _ And loves to|live i' the sun,|seek- ing the|food he eats|_ And pleased with|what he gets|
 d4 z2!f! G2 | (cB) c4 G2 | (cB) c4"^poco allargando" A2 | (cd e2- edcB | c2) C2 z4 | %43
w: _ Come|hi- * ther, come|hi- * ther, come|hi~~~~~~\-- * \- * * * \-|* \-~~ther~!|
"^a tempo"!mf! E2 E=F G4- | G2 G2 AG A2 |"^poco rit." z2 E2 B2 E2 | z2"^cresc." A2 c2 =F2 | %47
w: Here shall he see|_ No en- e- my|But win- ter,|but win- ter|
 z4!<)!!<(! _B4 | _e8 | A D3!f! !fermata!z4 |"^a tempo"[Q:1/4=140] =B2 Bc d2 B2 | GF G2 z2 G2 | %52
w: and|rough|wea- ther,|Here shall he see no|en- e- my, But|
 e8- | e2 d2 c2 A2 | B G3 z4 | z8 | z8 | z8 |] %58
w: win-|* ter and rough|wea- ther.||||
V:2
 .[Gg]2 .[Dd]2 ([EGe][Dd]).[Cc].[B,B] | ([CGc]2 [Ee]2) z2 [B,^GB]2 | %2
 ([CAc]2 [D^Gd][Ee] [A,EA]2) .[=G,B,=G]2 | .[F,CF]2 .[G,B,G]2 z4 | z4 z2 [G,DG]2 | %5
 E2[K:bass] DC B,2 D2 | (E2 DC) (D2 CB,) | (A,2 G,A, B,A,G,F,) | z (F, [DF]2) z (G, [DEG]2) | %9
 z (A, [DFA]2) z (C [Ac]2) | z (G, [EG]2) z (A, [FA]2) | z (B, [GB]2) z (D [Bd]2) | %12
 [Ece]2 E2 (=FEDC | [Ece]2) A2 (cAEC) | [A,CA]2 [G,CG]2 [A,CA]2 [B,=FB]2 | [CEc]2 z2 z4 | %16
 [CE]6 [B,D]2 | [D=F]2 (.[CE]2 .[B,D]2 .[A,C]2) | !>![E,B,]4 z2 [E,A,]2 | %19
 !>![E,^G,B,]4 z2[K:treble] !>![A,E^FA]2 | !>![B,E^GB]2 !>![EBe]2 !>![CEAc]2 !>![A,EFA]2 | %21
 [B,E^GB]4 z4 | [B,=GB]4 [A,GA]2 [B,FB]2 | (!>![G,EG]4 [CF]2) [G,DG]2 | %24
 ([E,CE]2 [F,F]2 [G,G]2) .[A,DA]2 | [B,GB]4 z4 | .[Gg]2 .[Dd]2 ([EGe][Dd]).[Cc].[B,B] | %27
 ([Cc]2 [E^Ge]2) z2 .[B,GB]2 | ([CAc]2 [Dd][Ee] [A,^DA]2) .[G,EG]2 | %29
 .[A,CF]2 .[G,B,E]2 !>![F,A,^D]2 .[E,G,E]2 | z4 (!>![F,A,^D]2 .[A,CF]2) | %31
 z4 (!>![F,A,^D]2 .[G,B,E]2) | z4 (.[F,A,^D]2 .[A,CF]2) | z4 (.[F,A,^D]2 .[G,B,E]2) | %34
 z4 (.[^G,B,^E]2 .[A,=CF]2) | z4 (.[A,=CF]2 .[B,DG]2) | z4 (.[A,DF]2 .[DFA]2) | %37
 z4 (.[CF^A]2 .[B,GB]2) | z4 (.[EGAc]2 .[D=FBd]2) | [EGce]2 .G2 (AG=FE | [EAce]2) A2 (cAEC) | %41
"^poco allargando" [A,CA]2 [CG]c [CA]c [=FB]=f | .[Ece]2 .C2 z4 |"^a tempo" [CE]6!<)!!<(! [B,D]2 | %44
 [D=F]2 (.[CE]2 .[B,D]2 .[A,C]2) | !>![E,B,]4 z2 [E,A,]2 |!<(! !>![=F,A,C]4 z2!<)! [F,_B,D]2 | %47
 !>![G,_B,_E]4 z4 | !>![G,A,_EG]4 !>![GA_eg]4 | !>![^F,A,D]4 !fermata!z4 | %50
 [B,GB]4 [A,GA]2 [B,FB]2 | ([G,EG]4 [CF]2) [G,DG]2 | ([E,CE]2 [F,F]2 [G,G]2) .[CEc]2 | %53
 [EAce]2 z2 [DFcd]2 z2 | [GBg]2 .[Dd]2 (!>![Ee][Dd])[Cc][B,B] | (.[CGc]2 .[Ee]2) z2 [B,^GB]2 | %56
 ([CAc]2 [D^Gd][Ee] [A,EA]2) .[=G,C=G]2 | !>![F,CF]2 !>![G,B,G]2 z4 |] %58
V:3
 x8 | x8 | x8 | x8 | x8 | G,2[K:bass] F,2 G,2 G,2 | G,4 G,4 | D,4 D,4 | x8 | x8 | x8 | x8 | x8 | %13
 x8 | x8 | x8 | x8 | x8 | x8 | x6[K:treble] x2 | x8 | x8 | x8 | x8 | x8 | x8 | x8 | x8 | x8 | x8 | %30
 x8 | x8 | x8 | x8 | x8 | x8 | x8 | x8 | x8 | x8 | x8 | x8 | x8 | x8 | x8 | x8 | x8 | x8 | x8 | %49
 x8 | x8 | x8 | x8 | x8 | x8 | x8 | x8 | x8 |] %58
V:4
!f! z4 .[G,,G,]2 .[D,,D,]2 | ([E,,E,][D,,D,]).[C,,C,].[B,,,B,,] ([C,,C,]2 [E,,E,]2) | %2
 z2 [B,,,B,,]2 ([C,,C,]2 [D,,D,][E,,E,] | .[A,,,A,,]2) .[G,,,G,,]2 !>!.[F,,,F,,]2 .[G,,,G,,]2 | %4
 z4 z2 [B,,,B,,]2 | [C,,C,]2 [D,,D,]2 [E,,E,]2 [B,,,B,,]2 | [C,,C,]2 B,,A,, B,,2 G,,2 | %7
 (F,,2 E,,F,, G,,F,,E,,D,,) | !>!D,3 .D,, !>!E,3 .D,, | !>!F,3 D,, !>!A,3 D,, | E,3 D,, F,3 D,, | %11
!<(! G,3 D, G,,2!<)! [G,B,]2 | [C,G,C]2 E,2 (=F,E,D,C, | [A,,E,A,]2) A,2 (CA,E,C,) | %14
 [=F,,C,=F,]2 [E,,C,E,]2 [F,,C,F,]2 [D,,G,,D,]2 | [C,,G,,C,]2 z2 z4 | [C,E,]6!<)!!<(! [B,,D,]2 | %17
!>(! [D,=F,]2!>)! (.[C,E,]2!>(! .[B,,D,]2!>)! .[A,,C,]2) | !>![E,,B,,]4 z2 [A,,C,]2 | %19
 !>![E,,B,,]4 z2"^rit." !>![A,,,A,,]2 | !>![E,,,E,,]2 !>![^G,,,^G,,]2 !>![A,,,A,,]2 !>![C,,C,]2 | %21
 !>![E,,E,]4 z4 |!f!"^a tempo" z2 [G,,G,]2 [D,,D,]3 [^D,,^D,] | %23
 ([E,,E,]2 [G,,G,]2) [A,,,A,,]2 [B,,,B,,]2 | ([C,,C,]2 [D,,D,]2 [E,,E,]2) .[F,,F,]2 | %25
 [G,,G,]2 [G,,,G,,]2!f! .[G,G]2 .[D,D]2 |!f! ([E,E][D,D]).[C,C].[B,,B,] ([C,C]2 [E,E]2) | %27
 z2 [B,,,B,,]2 ([C,,C,]2 [D,,D,][E,,E,] | [A,,,A,,]2) .[G,,,G,,]2 .[F,,,F,,]2 .[E,,,E,,]2 | %29
 !>![^D,,,^D,,]2 .[E,,,E,,]2 z4 |!mf! (!>![^D,,,^D,,]2 .[E,,,E,,]2) z4 | %31
 (!>![^D,,,^D,,]2 .[E,,,E,,]2) z4 | (!>![^D,,,^D,,]2 .[E,,,E,,]2) z4 | %33
 (.[^D,,,^D,,]2 .[E,,,E,,]2) z4 |"^cresc."!<(! (.[^C,,^C,]2 .[D,,D,]2)!<)! z4 | %35
 (.[^C,,^C,]2 .[D,,D,]2) z4 | (.[B,,,B,,]2 .[C,,C,]2) z4 | (.[^A,,,^A,,]2 .[B,,,B,,]2) z4 | %38
 (.[F,,,F,,]2 .[G,,,G,,]2) z4 | [C,,C,]2 .G,2 (A,G,=F,E, | [A,,,A,,]2) A,2 (CA,E,C,) | %41
 [=F,,=F,]2 [E,,E,]2 [F,,F,]2 [D,,D,]2 | [C,,C,]2 C,2 z4 |!mf! [C,E,]6!<)!!<(! [B,,D,]2 | %44
!>(! [D,=F,]2!>)! (.[C,E,]2 .[B,,D,]2 .[A,,C,]2) |"^poco rit." !>![E,,B,,]4 z2 [A,,C,]2 | %46
"^cresc."!<(! !>![=F,,C,]4 z2!<)! _B,,2 | !>![_E,,_B,,]4 z4 | !>![C,,C,]4 !>![C,G,C]4 | %49
 !>![D,,D,]4 [D,,,D,,]2 !fermata!z2 | z2 [G,,G,]2 [D,,D,]3 [^D,,^D,] | %51
 ([E,,E,]2 [G,,G,]2) [A,,,A,,]2 [B,,,B,,]2 | ([C,,C,]2 [D,,D,]2 [E,,E,]2) .[C,,C,]2 | %53
 [A,,,A,,]2 z2 [D,,D,]2 z2 |!f! [G,,,G,,]2 z2 [G,,G,]2 [D,,D,]2 | %55
 (!>![E,,E,][D,,D,])[C,,C,][B,,,B,,] (.[C,,C,]2 .[E,,E,]2) | %56
"^poco rit." z2 [B,,,B,,]2 ([C,,C,]2 [D,,D,][E,,E,]) | !>![D,,D,]2 !>![G,,,G,,]2 z4 |] %58

